assets/Loudspeaker/Flat/loudspeaker_flat.svg

<svg width="32" height="32" viewBox="0 0 32 32" fill="none" xmlns="http://www.w3.org/2000/svg">
<path d="M26.18 19.61C28.2345 19.61 29.9 17.9445 29.9 15.89C29.9 13.8355 28.2345 12.17 26.18 12.17C24.1255 12.17 22.46 13.8355 22.46 15.89C22.46 17.9445 24.1255 19.61 26.18 19.61Z" fill="#212121"/>
<path d="M10.9999 11L11.6799 9.99997C12.9299 9.99997 14.1699 9.70997 15.2899 9.16997L21.5499 6.08997V25.71L15.2899 22.63C14.1699 22.08 12.9299 21.79 11.6799 21.79L10.9999 20V11ZM6.21586 29.0083H8.78989C9.45989 29.0083 9.99989 28.4683 9.99989 27.7983V19.89H5.00586V27.7983C5.00586 28.4683 5.54586 29.0083 6.21586 29.0083Z" fill="#D3D3D3"/>
<path d="M24.07 3C22.38 3 21 4.37 21 6.07V25.72C21 27.41 22.37 28.79 24.07 28.79C25.76 28.79 27.14 27.42 27.14 25.72V6.07C27.13 4.37 25.76 3 24.07 3Z" fill="#F8312F"/>
<path d="M3.72662 10H12V21.78H3.72662C2.77081 21.78 2 21.03 2 20.11V11.68C2 10.75 2.77081 10 3.72662 10Z" fill="#CA0B4A"/>
</svg>

<svg xmlns="http://www.w3.org/2000/svg" width="32" height="32" fill="none"><path fill="#212121" d="M26.18 19.61a3.72 3.72 0 1 0 0-7.44 3.72 3.72 0 0 0 0 7.44Z"/><path fill="#D3D3D3" d="m11 11 .68-1c1.25 0 2.49-.29 3.61-.83l6.26-3.08v19.62l-6.26-3.08a8.209 8.209 0 0 0-3.61-.84L11 20v-9ZM6.216 29.008H8.79c.67 0 1.21-.54 1.21-1.21V19.89H5.006v7.908c0 .67.54 1.21 1.21 1.21Z"/><path fill="#F8312F" d="M24.07 3A3.07 3.07 0 0 0 21 6.07v19.65a3.07 3.07 0 0 0 6.14 0V6.07A3.077 3.077 0 0 0 24.07 3Z"/><path fill="#CA0B4A" d="M3.727 10H12v11.78H3.727C2.77 21.78 2 21.03 2 20.11v-8.43c0-.93.77-1.68 1.727-1.68Z"/></svg>
